assets/img/icons/email.svg

<svg xmlns="http://www.w3.org/2000/svg" width="11.17" height="11.893"><path fill-rule="evenodd" clip-rule="evenodd" fill="#7C7A82" d="M8.548 11.893v-1.127l.992-.001-.992-.986v-.627l1.56 1.55.013-.02.027-.158V4.218l-.016-.119-.004-.013-1.58 1.728V1.678c.955.686 1.853 1.38 2.191 1.649.261.209.431.539.431.993v6.308c0 .663-.509 1.265-1.354 1.265H8.548zm0-10.215v4.136l-1.602 1.75 1.602 1.588v.627L6.793 8.038l-.152-.139-.982-.009-.865-.005-1.983 1.899V9.17L4.49 7.562l-1.679-1.78v-4.14C4.039.81 5.33 0 5.673 0c.415 0 1.653.806 2.818 1.639l.057.039zm0 9.088v1.127l-5.737-.001v-1.118l2.849-.005 2.888-.003zm-7.194 1.127zm1.457-10.25v4.14l-1.64-1.738-.038.173.026 6.457.028.051L2.811 9.17v.614H2.81l-1.028.989h1.029v1.118H1.354C.519 11.893 0 11.309 0 10.628V4.32c0-.319.069-.625.313-.886.075-.08 1.254-.948 2.498-1.791z"/></svg>

<?xml version="1.0" encoding="utf-8"?>
<!-- Generator: Adobe Illustrator 16.0.0, SVG Export Plug-In . SVG Version: 6.00 Build 0)  -->
<!DOCTYPE svg PUBLIC "-//W3C//DTD SVG 1.1//EN" "http://www.w3.org/Graphics/SVG/1.1/DTD/svg11.dtd">
<svg version="1.1" id="Layer_1" xmlns="http://www.w3.org/2000/svg" xmlns:xlink="http://www.w3.org/1999/xlink" x="0px" y="0px"
	 width="11.17px" height="11.893px" viewBox="0 0 11.17 11.893" enable-background="new 0 0 11.17 11.893" xml:space="preserve">
<path fill-rule="evenodd" clip-rule="evenodd" fill="#7C7A82" d="M8.548,11.893v-1.127l0.992-0.001L8.548,9.779V9.152l1.56,1.55
	l0.013-0.02l0.027-0.158V4.218l-0.016-0.119l-0.004-0.013l-1.58,1.728V1.678c0.955,0.686,1.853,1.38,2.191,1.649
	C11,3.536,11.17,3.866,11.17,4.32v6.308c0,0.663-0.509,1.265-1.354,1.265H8.548L8.548,11.893z M9.816,11.893 M8.548,1.678v4.136
	L6.946,7.564l1.602,1.588v0.627L6.793,8.038L6.641,7.899L5.659,7.89L4.794,7.885L2.811,9.784V9.17l1.679-1.608L2.811,5.782v-4.14
	C4.039,0.81,5.33,0,5.673,0c0.415,0,1.653,0.806,2.818,1.639L8.548,1.678L8.548,1.678z M8.548,10.766v1.127l-5.737-0.001v-1.118
	l2.849-0.005L8.548,10.766z M1.354,11.893L1.354,11.893L1.354,11.893z M2.811,1.643v4.14l-1.64-1.738L1.133,4.218l0.026,6.457
	l0.028,0.051L2.811,9.17v0.614H2.81l-1.028,0.989H2.81h0.001v1.118H1.354C0.519,11.893,0,11.309,0,10.628V4.32
	c0-0.319,0.069-0.625,0.313-0.886C0.388,3.354,1.567,2.486,2.811,1.643z"/>
</svg>
